X: 10
T: Cronin's
Z: tziguk
S: https://thesession.org/tunes/478#setting53496
R: hornpipe
M: 4/4
L: 1/8
K: Gmaj
|:BA|GABd dBde|gage dega|bage dBGA|BAAG (3ABc BA|
GABd dBde|gage dega|bage dBAc|G2 GF G2:|
|:(3efg|afd^c d2ga|beed e2ga|bg (3agf gedB|BAAG (3ABc BA|
GABd dBde|gage dega|bage dBAc|G2 GF G2:|

%-------------------- TUNE SEPARATOR --------------------%

